X:1
T:Menuette efter Johan Eric Blomgren
R:Menuett
Z:Transkription gjord av Jonas Brunskog, 6/7 2008
O:Hässlunda, Skåne
S:efter Johan Eric Blomgren
N:Folkmusikkommissionens notsamling, Bild: 10 Volym: Ma 13a Datering: 1780-. Nummer 23
M:3/4
L:1/8
K:D
|:D6|A4 a2|g2 fefd|e2 AAAA|ec Aceg|fd Adfa|g2f2e2|d4 z2:|
|:f2 de f2|ec A2 A2|Ac d2 d2|d2 cB c2|f2 edcB| ^g4 a2|(cB/A/) B4|A6|
A2B2 =c2|=c2 BA B2| B2 c2 d2|d2 cB c2|ec Aceg|fd Adfa|Ag f2e2|d4 z2:|

